src/assets/icons/socialIcons/github.svg

<svg width="21" height="20" viewBox="0 0 21 20" fill="none" xmlns="http://www.w3.org/2000/svg" class="color-white"><path d="M10.3509 0.208008C4.77215 0.208008 0.248047 4.70301 0.248047 10.248C0.248047 14.683 3.14286 18.4455 7.15923 19.7743C7.66444 19.8668 7.84884 19.5568 7.84884 19.2905C7.84884 19.0518 7.83999 18.4205 7.83494 17.583C5.02475 18.1893 4.43113 16.2368 4.43113 16.2368C3.97266 15.0768 3.30958 14.768 3.30958 14.768C2.39137 14.1455 3.37778 14.158 3.37778 14.158C4.39198 14.2293 4.92497 15.193 4.92497 15.193C5.82676 16.7268 7.29059 16.2843 7.86652 16.0268C7.95745 15.378 8.2189 14.9355 8.50813 14.6843C6.26502 14.4305 3.90572 13.5693 3.90572 9.72301C3.90572 8.62676 4.29978 7.73051 4.94644 7.02801C4.84161 6.77426 4.49555 5.75301 5.04496 4.37176C5.04496 4.37176 5.8937 4.10176 7.82358 5.40051C8.62938 5.17801 9.49327 5.06676 10.3534 5.06301C11.211 5.06801 12.0761 5.17801 12.8832 5.40176C14.8118 4.10301 15.6593 4.37301 15.6593 4.37301C16.21 5.75551 15.8639 6.77551 15.7603 7.02926C16.4082 7.73176 16.7985 8.62801 16.7985 9.72426C16.7985 13.5805 14.4367 14.4293 12.186 14.678C12.5485 14.988 12.8718 15.6005 12.8718 16.5368C12.8718 17.8793 12.8592 18.9618 12.8592 19.2905C12.8592 19.5593 13.0411 19.8718 13.5538 19.773C17.5639 18.443 20.4562 14.6818 20.4562 10.248C20.4562 4.70301 15.9321 0.208008 10.3509 0.208008Z" fill="currentColor"></path></svg>

<svg xmlns="http://www.w3.org/2000/svg" width="21" height="20" fill="none" class="color-white"><path fill="currentColor" d="M10.35.208C4.773.208.249 4.703.249 10.248c0 4.435 2.895 8.197 6.911 9.526.505.093.69-.217.69-.483 0-.24-.009-.87-.014-1.708-2.81.606-3.404-1.346-3.404-1.346-.458-1.16-1.121-1.469-1.121-1.469-.919-.623.068-.61.068-.61 1.014.071 1.547 1.035 1.547 1.035.902 1.534 2.366 1.091 2.942.834.09-.649.352-1.092.641-1.343-2.243-.253-4.602-1.115-4.602-4.961a3.87 3.87 0 0 1 1.04-2.695c-.104-.254-.45-1.275.099-2.656 0 0 .849-.27 2.779 1.029a9.734 9.734 0 0 1 2.53-.338 9.757 9.757 0 0 1 2.53.339c1.928-1.299 2.775-1.029 2.775-1.029.551 1.383.205 2.403.101 2.656.648.703 1.039 1.599 1.039 2.695 0 3.857-2.362 4.705-4.613 4.954.363.31.686.922.686 1.859 0 1.342-.013 2.425-.013 2.754 0 .268.182.58.695.482 4.01-1.33 6.902-5.091 6.902-9.525 0-5.545-4.524-10.04-10.105-10.04Z"/></svg>
